src/img/información.svg

<svg width="16" height="16" viewBox="0 0 16 16" fill="none" xmlns="http://www.w3.org/2000/svg">
<path d="M8 0.744141C6.96875 0.744141 5.99609 0.943359 5.08203 1.3418C4.16797 1.72852 3.37109 2.26172 2.69141 2.94141C2.01172 3.62109 1.47852 4.41797 1.0918 5.33203C0.693359 6.24609 0.494141 7.21875 0.494141 8.25C0.494141 9.28125 0.693359 10.2539 1.0918 11.168C1.47852 12.082 2.01172 12.8789 2.69141 13.5586C3.37109 14.2383 4.16797 14.7715 5.08203 15.1582C5.99609 15.5566 6.96875 15.7559 8 15.7559C9.03125 15.7559 10.0039 15.5566 10.918 15.1582C11.832 14.7715 12.6289 14.2383 13.3086 13.5586C13.9883 12.8789 14.5215 12.082 14.9082 11.168C15.3066 10.2539 15.5059 9.28125 15.5059 8.25C15.5059 7.21875 15.3066 6.24609 14.9082 5.33203C14.5215 4.41797 13.9883 3.62109 13.3086 2.94141C12.6289 2.26172 11.832 1.72852 10.918 1.3418C10.0039 0.943359 9.03125 0.744141 8 0.744141ZM8 14.9121C7.07422 14.9121 6.20703 14.7422 5.39844 14.4023C4.58984 14.0508 3.88086 13.5762 3.27148 12.9785C2.67383 12.3691 2.19922 11.6602 1.84766 10.8516C1.50781 10.043 1.33789 9.17578 1.33789 8.25C1.33789 7.32422 1.50781 6.45703 1.84766 5.64844C2.19922 4.83984 2.67383 4.13672 3.27148 3.53906C3.88086 2.92969 4.58984 2.44922 5.39844 2.09766C6.20703 1.75781 7.07422 1.58789 8 1.58789C8.92578 1.58789 9.79297 1.75781 10.6016 2.09766C11.4102 2.44922 12.1133 2.92969 12.7109 3.53906C13.3203 4.13672 13.8008 4.83984 14.1523 5.64844C14.4922 6.45703 14.6621 7.32422 14.6621 8.25C14.6621 9.17578 14.4922 10.043 14.1523 10.8516C13.8008 11.6602 13.3203 12.3691 12.7109 12.9785C12.1133 13.5762 11.4102 14.0508 10.6016 14.4023C9.79297 14.7422 8.92578 14.9121 8 14.9121ZM8.91406 10.7812L9.19531 10.957C8.98438 11.2734 8.79688 11.5371 8.63281 11.748C8.46875 11.959 8.33398 12.1172 8.22852 12.2227C8.04102 12.3984 7.84766 12.5332 7.64844 12.627C7.46094 12.709 7.26172 12.75 7.05078 12.75C6.93359 12.75 6.81641 12.7324 6.69922 12.6973C6.59375 12.6621 6.49414 12.6094 6.40039 12.5391C6.30664 12.457 6.23633 12.3633 6.18945 12.2578C6.14258 12.1406 6.11914 12.0117 6.11914 11.8711C6.11914 11.8125 6.125 11.7422 6.13672 11.6602C6.14844 11.5781 6.17188 11.4785 6.20703 11.3613C6.21875 11.3027 6.23633 11.2324 6.25977 11.1504C6.2832 11.0566 6.30664 10.957 6.33008 10.8516L7.26172 7.93359C7.26172 7.91016 7.26172 7.89258 7.26172 7.88086C7.27344 7.86914 7.2793 7.85156 7.2793 7.82812C7.29102 7.81641 7.29688 7.80469 7.29688 7.79297C7.29688 7.76953 7.29688 7.75195 7.29688 7.74023C7.29688 7.64648 7.2793 7.57617 7.24414 7.5293C7.2207 7.4707 7.17969 7.42969 7.12109 7.40625C7.07422 7.39453 6.99805 7.38281 6.89258 7.37109C6.79883 7.34766 6.67578 7.33594 6.52344 7.33594V6.98438C6.65234 6.97266 6.80469 6.96094 6.98047 6.94922C7.15625 6.92578 7.36133 6.90234 7.5957 6.87891C7.81836 6.85547 8.01172 6.83203 8.17578 6.80859C8.33984 6.78516 8.46875 6.76172 8.5625 6.73828L9.125 6.63281L7.98242 10.3242C7.94727 10.4883 7.91211 10.6289 7.87695 10.7461C7.85352 10.8516 7.83594 10.9336 7.82422 10.9922C7.77734 11.1445 7.74219 11.2734 7.71875 11.3789C7.70703 11.4727 7.70117 11.543 7.70117 11.5898C7.70117 11.6367 7.70703 11.6777 7.71875 11.7129C7.73047 11.748 7.74805 11.7715 7.77148 11.7832C7.79492 11.7949 7.8125 11.8066 7.82422 11.8184C7.84766 11.8184 7.87695 11.8184 7.91211 11.8184C7.9707 11.8184 8.04102 11.7891 8.12305 11.7305C8.20508 11.6719 8.29297 11.5898 8.38672 11.4844C8.49219 11.3672 8.58594 11.25 8.66797 11.1328C8.75 11.0156 8.83203 10.8984 8.91406 10.7812ZM9.49414 4.68164C9.49414 4.93945 9.40039 5.16211 9.21289 5.34961C9.03711 5.53711 8.82031 5.63086 8.5625 5.63086C8.30469 5.63086 8.08203 5.53711 7.89453 5.34961C7.71875 5.16211 7.63086 4.93945 7.63086 4.68164C7.63086 4.42383 7.71875 4.20703 7.89453 4.03125C8.08203 3.84375 8.30469 3.75 8.5625 3.75C8.82031 3.75 9.03711 3.84375 9.21289 4.03125C9.40039 4.20703 9.49414 4.42383 9.49414 4.68164Z" fill="#007AB7"/>
</svg>

<svg width="16" height="16" fill="none" xmlns="http://www.w3.org/2000/svg"><path d="M8 .744c-1.031 0-2.004.2-2.918.598a7.45 7.45 0 00-2.39 1.6 7.447 7.447 0 00-1.6 2.39A7.223 7.223 0 00.494 8.25c0 1.031.2 2.004.598 2.918a7.45 7.45 0 001.6 2.39 7.447 7.447 0 002.39 1.6A7.223 7.223 0 008 15.756c1.031 0 2.004-.2 2.918-.598a7.447 7.447 0 002.39-1.6 7.447 7.447 0 001.6-2.39 7.224 7.224 0 00.598-2.918c0-1.031-.2-2.004-.598-2.918a7.447 7.447 0 00-1.6-2.39 7.448 7.448 0 00-2.39-1.6A7.223 7.223 0 008 .744zm0 14.168c-.926 0-1.793-.17-2.602-.51a6.982 6.982 0 01-2.127-1.423 6.984 6.984 0 01-1.423-2.127 6.645 6.645 0 01-.51-2.602c0-.926.17-1.793.51-2.602A6.765 6.765 0 013.27 3.54a6.828 6.828 0 012.127-1.441A6.645 6.645 0 018 1.588c.926 0 1.793.17 2.602.51a6.617 6.617 0 012.109 1.441c.61.598 1.09 1.3 1.441 2.11.34.808.51 1.675.51 2.601 0 .926-.17 1.793-.51 2.602a6.826 6.826 0 01-1.441 2.127 6.762 6.762 0 01-2.11 1.423c-.808.34-1.675.51-2.601.51zm.914-4.13l.281.175c-.21.316-.398.58-.562.791-.164.211-.299.37-.404.475a2.3 2.3 0 01-.58.404 1.475 1.475 0 01-.598.123 1.22 1.22 0 01-.352-.053 1.05 1.05 0 01-.299-.158.809.809 0 01-.21-.281 1.032 1.032 0 01-.07-.387c0-.059.005-.129.017-.21a2.11 2.11 0 01.07-.3 11.856 11.856 0 00.123-.51l.932-2.917V7.88a.077.077 0 00.017-.053c.012-.012.018-.023.018-.035V7.74c0-.094-.018-.164-.053-.21a.212.212 0 00-.123-.124 1.93 1.93 0 00-.228-.035 1.572 1.572 0 00-.37-.035v-.352c.13-.011.282-.023.457-.035.176-.023.381-.047.616-.07.222-.024.416-.047.58-.07.164-.024.293-.047.386-.07l.563-.106-1.143 3.691c-.035.164-.07.305-.105.422l-.053.246a5.154 5.154 0 00-.105.387 1.867 1.867 0 00-.018.21.39.39 0 00.018.124c.011.035.029.059.052.07a.202.202 0 01.053.035h.088c.059 0 .129-.029.211-.088.082-.058.17-.14.264-.246.105-.117.199-.234.281-.351l.246-.352zm.58-6.1c0 .257-.094.48-.281.668a.856.856 0 01-.65.28.913.913 0 01-.668-.28.944.944 0 01-.264-.668.88.88 0 01.264-.65.913.913 0 01.668-.282c.257 0 .474.094.65.281a.856.856 0 01.281.65z" fill="#007AB7"/></svg>
